X:4
T:Marbhee (3
M:6/8
K:G
G2 A | B2 c2 | B2 c2 | cB cB | Bc A2 | B2 G2 (3Bcd| A2A2 A2 | G2 G2 | A2 G2 | A2 BA | AA Bc | B2B2 | B2B2 | B2B2 | G2B2 | A2A2B2 | B2B2B2 | A2 C2 A2 | B2 G2 | AG BA | A2 A2 | d>c c>d | d2 c2 | c2 c2 | B2 AB | c2B2 | c2c2 | B2B2 | B2 c2 | B2 c2 | AG G2 | F3 | G2 :| F>B Ac | dB/B/ BA | G2 G2 | G2 AG | F2 AG | A2 B2 | c2 B2 | d2 d2 | B2c2 | B2A2 | B2B2 | A2 c2 | "C"2B B2|d2 d2:|
<end>